; HEADER_BLOCK_START
; generated by OrcaSlicer 2.4.2 on 2026-07-24 at 21:19:04
; total layer number: 4
; filament_density: 1.25,1.25
; filament_diameter: 1.75,1.75
; max_z_height: 0.80
; filament: 1
; HEADER_BLOCK_END

; THUMBNAIL_BLOCK_START

;
; THUMBNAIL_BLOCK_END

; THUMBNAIL_BLOCK_START

;
; THUMBNAIL_BLOCK_END

; external perimeters extrusion width = 0.52mm
; perimeters extrusion width = 0.52mm
; infill extrusion width = 0.52mm
; solid infill extrusion width = 0.52mm
; top infill extrusion width = 0.40mm
; support material extrusion width = 0.42mm
; first layer extrusion width = 0.52mm

; EXECUTABLE_BLOCK_START
EXCLUDE_OBJECT_DEFINE NAME=E3DV6-_v6_spacer.stl_id_0_copy_0 CENTER=125,125 POLYGON=[[117.699,124.567],[117.792,123.707],[117.978,122.861],[118.254,122.041],[118.618,121.255],[119.064,120.513],[119.587,119.824],[120.182,119.195],[120.842,118.634],[121.558,118.148],[122.323,117.742],[123.127,117.421],[123.961,117.188],[124.815,117.048],[125.679,117],[126.544,117.046],[127.398,117.185],[128.232,117.416],[129.037,117.735],[129.802,118.14],[130.52,118.625],[131.18,119.184],[131.776,119.812],[132.301,120.5],[132.301,129.5],[131.776,130.188],[131.18,130.816],[130.52,131.375],[129.802,131.86],[129.037,132.265],[128.232,132.584],[127.398,132.815],[126.544,132.954],[125.679,133],[124.815,132.952],[123.961,132.812],[123.127,132.579],[122.323,132.258],[121.558,131.852],[120.842,131.366],[120.182,130.805],[119.587,130.176],[119.064,129.487],[118.618,128.745],[118.254,127.959],[117.978,127.139],[117.792,126.293],[117.699,125.433],[117.699,124.567]]
M73 P0 R0
;TYPE:Custom
START_PRINT BED_TEMP=55 EXTRUDER_TEMP=205 INITIAL_TOOL=0
G90
G21
M83 ; use relative distances for extrusion
; Filament gcode
SET_PRESSURE_ADVANCE ADVANCE=0.6; Override pressure advance value
T0 ; change extruder
;LAYER_CHANGE
;Z:0.2
;HEIGHT:0.2
G92 E0
;------------------------------------
;layer No: 0 ———>Print Height: 0.2 mm
;------------------------------------
SET_PRINT_STATS_INFO CURRENT_LAYER=1
;_SET_FAN_SPEED_CHANGING_LAYER
SET_VELOCITY_LIMIT ACCEL=500 ACCEL_TO_DECEL=250 ; adjust ACCEL_TO_DECEL ; adjust acceleration
SET_VELOCITY_LIMIT ACCEL=700 ACCEL_TO_DECEL=350 ; adjust VELOCITY_LIMIT(accel/jerk)
G1 E-1.6 F1800 ; retract
G1 X116.203 Y115.786 F3000 ; move to first skirt point
G1 Z.35 ; move to first skirt point
M73 P10 R0
G1 Z.2 ; ensure Z matches planned layer height
M73 P11 R0
G1 E1.6 F1200 ;  ; unretract
SET_VELOCITY_LIMIT ACCEL=500 ACCEL_TO_DECEL=250 ; adjust VELOCITY_LIMIT(accel/jerk)
;TYPE:Skirt
;WIDTH:0.52
G1 F3000
G1 X116.378 Y115.594 E.01008 ; skirt
G1 X117.448 Y114.643 E.05567 ; skirt
G1 X118.616 Y113.814 E.05567 ; skirt
G1 X119.866 Y113.115 E.05567 ; skirt
G1 X121.721 Y112.374 E.07766 ; skirt
G1 X123.963 Y111.879 E.08925 ; skirt
G1 X125.391 Y111.769 E.05567 ; skirt
M73 P12 R0
G1 X126.822 Y111.815 E.05567 ; skirt
G1 X128.24 Y112.015 E.05567 ; skirt
G1 X129.628 Y112.367 E.05567 ; skirt
G1 X130.97 Y112.866 E.05567 ; skirt
G1 X132.25 Y113.508 E.05567 ; skirt
G1 X133.453 Y114.285 E.05567 ; skirt
G1 X134.566 Y115.187 E.05567 ; skirt
G1 X135.574 Y116.203 E.05567 ; skirt
G1 X136.467 Y117.323 E.05567 ; skirt
G1 X137.364 Y119.153 E.0792 ; skirt
M73 P13 R0
G1 X137.54 Y120.5 E.05283 ; skirt
G1 X137.54 Y129.5 E.34988 ; skirt
G1 X137.144 Y131.498 E.0792 ; skirt
M73 P14 R0
G1 X136.467 Y132.677 E.05283 ; skirt
G1 X135.574 Y133.797 E.05567 ; skirt
G1 X134.566 Y134.813 E.05567 ; skirt
G1 X132.736 Y136.2 E.08925 ; skirt
G1 X130.97 Y137.134 E.07766 ; skirt
G1 X128.794 Y137.864 E.08925 ; skirt
G1 X126.822 Y138.185 E.07766 ; skirt
M73 P15 R0
G1 X124.526 Y138.183 E.08925 ; skirt
G1 X122.555 Y137.858 E.07766 ; skirt
G1 X121.184 Y137.444 E.05567 ; skirt
G1 X119.866 Y136.885 E.05567 ; skirt
G1 X117.899 Y135.7 E.08925 ; skirt
G1 X116.789 Y134.796 E.05567 ; skirt
M73 P16 R0
G1 X115.783 Y133.777 E.05567 ; skirt
G1 X114.892 Y132.656 E.05567 ; skirt
G1 X114.128 Y131.444 E.05567 ; skirt
G1 X113.499 Y130.158 E.05567 ; skirt
G1 X113.014 Y128.811 E.05567 ; skirt
G1 X112.676 Y127.419 E.05567 ; skirt
G1 X112.503 Y126.114 E.05119 ; skirt
G1 X112.491 Y124.001 E.08213 ; skirt
G1 X112.676 Y122.581 E.05567 ; skirt
G1 X113.014 Y121.189 E.05567 ; skirt
M73 P17 R0
G1 X113.863 Y119.057 E.08925 ; skirt
G1 X114.574 Y117.814 E.05567 ; skirt
G1 X115.416 Y116.655 E.05567 ; skirt
G1 X116.177 Y115.816 E.04404 ; skirt
; printing object E3DV6- v6 spacer.stl id:0 copy 0
SET_VELOCITY_LIMIT ACCEL=700 ACCEL_TO_DECEL=350 ; adjust VELOCITY_LIMIT(accel/jerk)
G1 E-1.6 F1800 ; retract
;WIPE_START
G1 F3000
G1 X116.378 Y115.594 ; wipe and retract
G1 X116.902 Y115.129 ; wipe and retract
;WIPE_END
EXCLUDE_OBJECT_START NAME=E3DV6-_v6_spacer.stl_id_0_copy_0
;spiral lift Z

G1 X117.013 Y115.509 Z0.221429
M73 P18 R0
G1 X116.785 Y115.833 Z0.242857
G1 X116.389 Y115.856 Z0.264286
G1 X116.124 Y115.562 Z0.285714
G1 X116.189 Y115.171 Z0.307143
G1 X116.535 Y114.979 Z0.328571
G1 X116.902 Y115.129 Z0.35
G1 X130.556 Y130.295 Z.35 ; move to first perimeter point
G1 Z.2 ; reset Z after contouring
M73 P20 R0
G1 E1.6 F1200 ;  ; unretract
SET_VELOCITY_LIMIT ACCEL=500 ACCEL_TO_DECEL=250 ; adjust VELOCITY_LIMIT(accel/jerk)
;TYPE:Inner wall
;WIDTH:0.375315
G1 F900
G1 X129.784 Y130.868 E.02602 ; perimeter
;WIDTH:0.368038
G1 X129.136 Y131.271 E.02022 ; perimeter
G1 X128.449 Y131.603 E.02022 ; perimeter
M73 P21 R0
;WIDTH:0.368146
G1 X127.73 Y131.859 E.02023 ; perimeter
;WIDTH:0.368261
G1 X126.988 Y132.038 E.02024 ; perimeter
;WIDTH:0.368388
G1 X126.231 Y132.137 E.02025 ; perimeter
;WIDTH:0.368522
G1 X125.467 Y132.154 E.02026 ; perimeter
;WIDTH:0.368664
G1 X124.707 Y132.09 E.02027 ; perimeter
;WIDTH:0.368817
G1 X123.957 Y131.946 E.02028 ; perimeter
M73 P22 R0
;WIDTH:0.368978
G1 X123.227 Y131.722 E.02029 ; perimeter
;WIDTH:0.369146
G1 X122.525 Y131.422 E.0203 ; perimeter
;WIDTH:0.369326
G1 X121.859 Y131.049 E.02031 ; perimeter
;WIDTH:0.369513
G1 X121.236 Y130.607 E.02032 ; perimeter
;WIDTH:0.369708
G1 X120.664 Y130.101 E.02033 ; perimeter
;WIDTH:0.369915
G1 X120.149 Y129.537 E.02035 ; perimeter
;WIDTH:0.370128
G1 X119.697 Y128.922 E.02036 ; perimeter
M73 P23 R0
;WIDTH:0.370351
G1 X119.313 Y128.262 E.02038 ; perimeter
;WIDTH:0.370577
G1 X119.003 Y127.568 E.02029 ; perimeter
;WIDTH:0.372262
G1 X118.784 Y126.915 E.01847 ; perimeter
G1 X118.617 Y126.158 E.0208 ; perimeter
;WIDTH:0.372126
G1 X118.534 Y125.396 E.02056 ; perimeter
G1 X118.533 Y124.612 E.02103 ; perimeter
M73 P24 R0
G1 X118.617 Y123.842 E.0208 ; perimeter
;WIDTH:0.372262
G1 X118.784 Y123.085 E.0208 ; perimeter
;WIDTH:0.372466
G1 X119.031 Y122.35 E.02082 ; perimeter
;WIDTH:0.372722
G1 X119.357 Y121.646 E.02083 ; perimeter
;WIDTH:0.372972
G1 X119.756 Y120.982 E.02085 ; perimeter
;WIDTH:0.373218
G1 X120.225 Y120.365 E.02086 ; perimeter
M73 P25 R0
;WIDTH:0.37345
G1 X120.758 Y119.802 E.02088 ; perimeter
;WIDTH:0.373675
G1 X121.349 Y119.3 E.02089 ; perimeter
;WIDTH:0.373892
G1 X121.99 Y118.864 E.02091 ; perimeter
;WIDTH:0.3741
G1 X122.675 Y118.501 E.02092 ; perimeter
;WIDTH:0.3743
G1 X123.394 Y118.214 E.02093 ; perimeter
;WIDTH:0.374491
G1 X124.141 Y118.006 E.02094 ; perimeter
M73 P26 R0
;WIDTH:0.374672
G1 X124.906 Y117.88 E.02095 ; perimeter
;WIDTH:0.374844
G1 X125.68 Y117.837 E.02096 ; perimeter
;WIDTH:0.375007
G1 X126.454 Y117.878 E.02097 ; perimeter
;WIDTH:0.375162
G1 X127.219 Y118.003 E.02098 ; perimeter
;WIDTH:0.378631
G1 X127.965 Y118.211 E.0212 ; perimeter
G1 X128.686 Y118.496 E.0212 ; perimeter
M73 P27 R0
;WIDTH:0.375583
G1 X129.379 Y118.863 E.02126 ; perimeter
G1 X130.116 Y119.374 E.02431 ; perimeter
;WIDTH:0.375435
G1 X130.593 Y119.73 E.01612 ; perimeter
G1 X129.952 Y119.668 E.01745 ; perimeter
G1 X129.607 Y119.404 E.01177 ; perimeter
;WIDTH:0.367999
G1 X128.989 Y119.019 E.0193 ; perimeter
M73 P28 R0
;WIDTH:0.368214
G1 X128.325 Y118.698 E.01954 ; perimeter
;WIDTH:0.369408
G1 X127.557 Y118.432 E.02163 ; perimeter
G1 X126.939 Y118.284 E.01689 ; perimeter
;WIDTH:0.368388
G1 X126.217 Y118.188 E.01932 ; perimeter
;WIDTH:0.368523
G1 X125.489 Y118.171 E.01933 ; perimeter
;WIDTH:0.368665
G1 X124.763 Y118.23 E.01934 ; perimeter
;WIDTH:0.368916
G1 X124.047 Y118.367 E.01935 ; perimeter
M73 P29 R0
G1 X123.361 Y118.575 E.01906 ; perimeter
;WIDTH:0.369096
G1 X122.689 Y118.86 E.01939 ; perimeter
;WIDTH:0.369285
G1 X122.051 Y119.214 E.0194 ; perimeter
;WIDTH:0.36948
G1 X121.455 Y119.635 E.01941 ; perimeter
;WIDTH:0.369684
G1 X120.907 Y120.117 E.01943 ; perimeter
;WIDTH:0.369897
G1 X120.414 Y120.654 E.01944 ; perimeter
M73 P30 R0
;WIDTH:0.370115
G1 X119.98 Y121.241 E.01945 ; perimeter
;WIDTH:0.370343
G1 X119.612 Y121.871 E.01947 ; perimeter
;WIDTH:0.370577
G1 X119.313 Y122.537 E.01948 ; perimeter
;WIDTH:0.37082
G1 X119.087 Y123.23 E.0195 ; perimeter
;WIDTH:0.371069
G1 X118.935 Y123.944 E.01951 ; perimeter
;WIDTH:0.371328
G1 X118.861 Y124.67 E.01953 ; perimeter
;WIDTH:0.372126
G1 X118.862 Y125.369 E.01875 ; perimeter
M73 P31 R0
G1 X118.942 Y126.102 E.01979 ; perimeter
;WIDTH:0.372262
G1 X119.1 Y126.822 E.01979 ; perimeter
;WIDTH:0.372464
G1 X119.335 Y127.522 E.01981 ; perimeter
G1 X119.641 Y128.186 E.01966 ; perimeter
;WIDTH:0.372973
G1 X120.025 Y128.827 E.02008 ; perimeter
;WIDTH:0.373218
G1 X120.472 Y129.416 E.01991 ; perimeter
M73 P32 R0
;WIDTH:0.37345
G1 X120.98 Y129.954 E.01992 ; perimeter
;WIDTH:0.373676
G1 X121.544 Y130.433 E.01994 ; perimeter
;WIDTH:0.373893
G1 X122.155 Y130.849 E.01995 ; perimeter
;WIDTH:0.374101
G1 X122.808 Y131.196 E.01996 ; perimeter
;WIDTH:0.3743
G1 X123.495 Y131.47 E.01997 ; perimeter
;WIDTH:0.374491
G1 X124.207 Y131.669 E.01998 ; perimeter
;WIDTH:0.374671
G1 X124.937 Y131.79 E.01999 ; perimeter
M73 P33 R0
;WIDTH:0.374844
G1 X125.675 Y131.831 E.02 ; perimeter
;WIDTH:0.375007
G1 X126.414 Y131.792 E.02001 ; perimeter
;WIDTH:0.375161
G1 X127.143 Y131.673 E.02002 ; perimeter
;WIDTH:0.37531
G1 X127.856 Y131.476 E.02003 ; perimeter
;WIDTH:0.375446
G1 X128.543 Y131.204 E.02003 ; perimeter
;WIDTH:0.375583
G1 X129.197 Y130.858 E.02005 ; perimeter
M73 P34 R0
G1 X129.961 Y130.324 E.02527 ; perimeter
;WIDTH:0.375315
G1 X130.516 Y130.297 E.01504 ; perimeter
SET_VELOCITY_LIMIT ACCEL=700 ACCEL_TO_DECEL=350 ; adjust VELOCITY_LIMIT(accel/jerk)
G1 X130.426 Y130.048 F3000
G1 X130.978 Y129.847 ; move to first perimeter point
G1 X131.461 Y129.655 ; move to first perimeter point
G1 X131.639 Y129.862 ; move to first perimeter point
G1 X131.754 Y129.763 ; move to first perimeter point
SET_VELOCITY_LIMIT ACCEL=500 ACCEL_TO_DECEL=250 ; adjust VELOCITY_LIMIT(accel/jerk)
;TYPE:Outer wall
;WIDTH:0.519999
G1 F900
M73 P35 R0
G1 X131.582 Y130.012 E.01177 ; perimeter
G1 X131.308 Y130.301 E.01546 ; perimeter
G1 X130.81 Y130.638 E.02338 ; perimeter
G1 X130.296 Y131.029 E.02511 ; perimeter
G1 X129.618 Y131.49 E.03189 ; perimeter
G1 X128.893 Y131.877 E.03192 ; perimeter
G1 X128.132 Y132.183 E.03192 ; perimeter
G1 X127.341 Y132.405 E.03192 ; perimeter
G1 X126.531 Y132.541 E.03192 ; perimeter
M73 P36 R0
G1 X125.712 Y132.588 E.03192 ; perimeter
G1 X124.892 Y132.546 E.03192 ; perimeter
G1 X124.081 Y132.416 E.03192 ; perimeter
G1 X123.289 Y132.199 E.03192 ; perimeter
G1 X122.525 Y131.898 E.03192 ; perimeter
M73 P37 R0
G1 X121.798 Y131.516 E.03192 ; perimeter
G1 X121.117 Y131.057 E.03192 ; perimeter
G1 X120.489 Y130.528 E.03192 ; perimeter
G1 X119.922 Y129.934 E.03192 ; perimeter
G1 X119.423 Y129.282 E.03192 ; perimeter
G1 X118.997 Y128.58 E.03192 ; perimeter
M73 P38 R0
G1 X118.651 Y127.84 E.03176 ; perimeter
G1 X118.389 Y127.074 E.03149 ; perimeter
G1 X118.204 Y126.258 E.03251 ; perimeter
G1 X118.112 Y125.442 E.03192 ; perimeter
G1 X118.109 Y124.621 E.03192 ; perimeter
G1 X118.194 Y123.805 E.03192 ; perimeter
M73 P39 R0
G1 X118.367 Y123.002 E.03192 ; perimeter
G1 X118.626 Y122.223 E.03192 ; perimeter
G1 X118.964 Y121.482 E.03165 ; perimeter
G1 X119.387 Y120.771 E.03219 ; perimeter
G1 X119.881 Y120.115 E.03192 ; perimeter
G1 X120.443 Y119.516 E.03192 ; perimeter
M73 P40 R0
G1 X121.066 Y118.982 E.03192 ; perimeter
G1 X121.744 Y118.517 E.03192 ; perimeter
G1 X122.467 Y118.129 E.03192 ; perimeter
G1 X123.228 Y117.822 E.03192 ; perimeter
G1 X124.018 Y117.598 E.03192 ; perimeter
M73 P41 R0
G1 X124.828 Y117.461 E.03192 ; perimeter
G1 X125.648 Y117.412 E.03192 ; perimeter
G1 X126.468 Y117.453 E.03192 ; perimeter
G1 X127.279 Y117.581 E.03192 ; perimeter
G1 X128.071 Y117.796 E.03191 ; perimeter
G1 X128.835 Y118.096 E.03193 ; perimeter
M73 P42 R0
G1 X129.563 Y118.477 E.03193 ; perimeter
G1 X130.092 Y118.83 E.02474 ; perimeter
G1 X130.595 Y119.215 E.02462 ; perimeter
G1 X131.303 Y119.696 E.03326 ; perimeter
G1 X131.755 Y120.224 E.02705 ; perimeter
G1 X131.084 Y120.219 E.02612 ; perimeter
M73 P43 R0
G1 X130.272 Y120.118 E.03179 ; perimeter
G1 X129.801 Y120.092 E.01835 ; perimeter
G1 X129.4 Y119.775 E.01986 ; perimeter
G1 X128.823 Y119.409 E.02658 ; perimeter
G1 X128.209 Y119.107 E.02658 ; perimeter
G1 X127.474 Y118.849 E.03029 ; perimeter
G1 X126.905 Y118.707 E.02282 ; perimeter
M73 P44 R0
G1 X126.228 Y118.613 E.02657 ; perimeter
G1 X125.545 Y118.592 E.02657 ; perimeter
G1 X124.863 Y118.643 E.02657 ; perimeter
G1 X124.191 Y118.767 E.02657 ; perimeter
G1 X123.536 Y118.962 E.02657 ; perimeter
G1 X122.905 Y119.225 E.02657 ; perimeter
G1 X122.306 Y119.554 E.02657 ; perimeter
M73 P45 R0
G1 X121.746 Y119.945 E.02657 ; perimeter
G1 X121.23 Y120.393 E.02657 ; perimeter
G1 X120.784 Y120.873 E.02543 ; perimeter
G1 X120.366 Y121.427 E.027 ; perimeter
G1 X120.01 Y122.024 E.027 ; perimeter
G1 X119.723 Y122.651 E.02684 ; perimeter
G1 X119.507 Y123.3 E.02657 ; perimeter
M73 P46 R0
G1 X119.361 Y123.967 E.02657 ; perimeter
G1 X119.287 Y124.647 E.02657 ; perimeter
G1 X119.285 Y125.33 E.02657 ; perimeter
G1 X119.357 Y126.01 E.02657 ; perimeter
G1 X119.501 Y126.678 E.02657 ; perimeter
G1 X119.714 Y127.327 E.02657 ; perimeter
G1 X119.996 Y127.95 E.02657 ; perimeter
M73 P47 R0
G1 X120.343 Y128.539 E.02657 ; perimeter
G1 X120.75 Y129.088 E.02657 ; perimeter
G1 X121.213 Y129.59 E.02657 ; perimeter
G1 X121.727 Y130.041 E.02657 ; perimeter
G1 X122.287 Y130.434 E.02657 ; perimeter
G1 X122.884 Y130.765 E.02657 ; perimeter
G1 X123.514 Y131.03 E.02657 ; perimeter
M73 P48 R0
G1 X124.169 Y131.228 E.02657 ; perimeter
G1 X124.84 Y131.354 E.02657 ; perimeter
G1 X125.522 Y131.408 E.02657 ; perimeter
G1 X126.205 Y131.389 E.02657 ; perimeter
G1 X126.882 Y131.298 E.02657 ; perimeter
G1 X127.546 Y131.135 E.02657 ; perimeter
G1 X128.188 Y130.902 E.02657 ; perimeter
M73 P49 R0
G1 X128.803 Y130.602 E.02657 ; perimeter
G1 X129.381 Y130.238 E.02657 ; perimeter
G1 X129.804 Y129.905 E.02092 ; perimeter
G1 X130.313 Y129.88 E.0198 ; perimeter
G1 X130.983 Y129.791 E.0263 ; perimeter
G1 X131.714 Y129.765 E.02843 ; perimeter
; stop printing object E3DV6- v6 spacer.stl id:0 copy 0
M106 S255 ; enable fan

;LAYER_CHANGE
;Z:0.4
;HEIGHT:0.2
G92 E0
EXCLUDE_OBJECT_END NAME=E3DV6-_v6_spacer.stl_id_0_copy_0
;------------------------------------
;layer No: 1 ———>Print Height: 0.4 mm
;------------------------------------
SET_PRINT_STATS_INFO CURRENT_LAYER=2
;_SET_FAN_SPEED_CHANGING_LAYER
M140 S55 ; set bed temperature
; printing object E3DV6- v6 spacer.stl id:0 copy 0
SET_VELOCITY_LIMIT ACCEL=700 ACCEL_TO_DECEL=350 ; adjust VELOCITY_LIMIT(accel/jerk)
EXCLUDE_OBJECT_START NAME=E3DV6-_v6_spacer.stl_id_0_copy_0
G1 X131.623 Y129.843 Z.4 F3000 ; move to first perimeter point
M73 P50 R0
G1 X130.871 Y130.45 ; move to first perimeter point
G1 X130.754 Y130.498 ; move to first perimeter point
G1 X130.656 Y130.262 ; move to first perimeter point
SET_VELOCITY_LIMIT ACCEL=500 ACCEL_TO_DECEL=250 ; adjust VELOCITY_LIMIT(accel/jerk)
;TYPE:Inner wall
;WIDTH:0.523739
G1 X129.82 Y130.934 E.04206 ; perimeter
;WIDTH:0.518058
G1 X129.164 Y131.341 E.02987 ; perimeter
G1 X128.469 Y131.675 E.02987 ; perimeter
;WIDTH:0.518253
G1 X127.742 Y131.934 E.02988 ; perimeter
;WIDTH:0.518363
G1 X126.992 Y132.113 E.02989 ; perimeter
;WIDTH:0.518484
G1 X126.227 Y132.212 E.0299 ; perimeter
;WIDTH:0.518611
G1 X125.455 Y132.229 E.02991 ; perimeter
;WIDTH:0.518748
G1 X124.686 Y132.163 E.02992 ; perimeter
M73 P51 R0
;WIDTH:0.518894
G1 X123.929 Y132.016 E.02993 ; perimeter
